X:1
T:Miss Mexico
T:Miss Mexico
T:by HENRY FRANTZEN.
T:Copyright 1907 by F. B. Haviland Pub. Co. Inc.
T:Copyright 1907 by F. B. Haviland Pub. Co. Inc.
T:Copyright 1907 by F. B. Haviland Pub. Co. Inc.
T:Copyright 1907 by F. B. Haviland Pub. Co. Inc.
C:by HENRY FRANTZEN.
Z:Copyright 1907 by F. B. Haviland Pub. Co. Inc.
%%score { ( 1 3 ) | ( 2 4 ) }
L:1/8
Q:1/4=90
M:2/4
K:F
V:1 treble nm="Piano" snm="Pno."
V:3 treble 
V:2 bass 
V:4 bass 
V:1
"^Tempo di Habanera."!f! [Bde]/b[de]/!<(! [Bb][Bde]!<)! | [A^ce]/a[ce]/!>(! .[Aa][GA=c] | %2
 [FAd]!>)! z z2 |!>(! z3/2 (A,/!>)! [DF]2) |:!mf! [FA]/dA/ !>!d2- | [FAd]F/G/ A/G/F/D/ | %6
 E/FE/ z [DE] | [Bde]/fe/ [GB]2 | E/AE/ A2- | [^CA]^D/F/ A/G/F/E/ | =D/^CD/ !>!A2 | E/^DE/ !>!A2 | %12
 [FA]/dA/ !>!d2- | [FAd]F/G/ A/G/F/D/ | E/FE/ z [DE] | [Bde]/fe/ [GB]2 | E/AE/ A2- | %17
 [^CA]^D/E/ A/G/F/E/ |1 D4- | D z/ (A,/ [DF]2) :|2 D4- | %21
 D z/!f!!<(! .a/ [d^fd']/[^c^c']/[=B=b]/[Aa]/!<)! ||[K:D]!ff! [Bfb]/[cfc'][Afa]/ [Bfb]2- | %23
 [Bfb]>a [B^db]/[Bda]/[Bdg]/[Adf]/ | [^G=de]/[Gdf][GB]/ [Ge]2- | e>e [^Gf]/[Ge]/[Gd]/[GB]/ | %26
 [=Gc]/[Ge][Gc]/ z [cgb] | [cgb] z!>(! [Ge]/[Gc]/[GB]/[GA]/!>)! | [Fd]/[Ff][cfc']/ [Bfb]2- | %29
 [Bfb]>a!<(! [dfd']/[cc']/[Bb]/[Aa]/!<)! |!ff! [Bfb]/[cfc'][Afa]/ [Bfb]2- | %31
 [Bfb]>a [B^db]/[Bda]/[Bdg]/[Adf]/ | [^G=de]/[Gdf][GB]/ [Ge]2- | e>e [^Gf]/[Ge]/[Gd]/[GB]/ | %34
 [Ac]/a!<(!e/ [ca]2-!<)! | [ca]>[Af] [ca]/[Af]/[ca]/[Af]/ | d4- | d"_rit."[Dd] [Bb][Ff] || %38
[K:G]!mf!"^dolce." [Aa]4- | [Aa][Gg] [DGd][EG^c] |!>(! =c4-!>)! |!<(! cd [cc'][^G^g]!<)! | [Bb]4- | %43
 [Bb][Aa] [EFce][_EFc_e] | [Dd]4- | [DGBd]d [Bb][Ff] | [Aa]4- | [Aa]>[Gg]!<(! [DBd][EBe]!<)! | %48
 [Ff]4- | [Ff][Fdf] [Gdg][Fdf] | [^c^c']4- | [^c^c'][Fef] [Geg][Fef] | [Ff]4- | %53
 [F=c=df][Dd] !arpeggio![Bdfb][Ff] |!mf! [Aa]4- | [Aa][Gg] [DGd][EG^c] | =c4- | %57
 [DFc][Dd] [cc'][^G^g] | [Bb]4- |!>(! [Bb][Aa] [EFce][_EFc_e] | [Dd]4-!>)! | [DGBd][Dd] [Bb][Ff] | %62
 [Aa]4- | [Aa]>g [B=fa][Bf_a] | g4- | g>g g[ga] | [dgb]/[dgb][dgb]/ [d^gc'][dgb] | %67
 [^c=gb]/[cga][cga]/ [=cfb][cfa] | g4- | g>a!f! [dfd']/[^c^c']/[Bb]/[Aa]/ || %70
[K:D] [Bfb]/[cfc'][Afa]/ [Bfb]2- | [Bfb]>a [B^db]/[Bda]/[Bdg]/[Adf]/ | [^G=de]/[Gdf][GB]/ [Ge]2- | %73
 e>e [^Gf]/[Ge]/[Gd]/[GB]/ | [=Gc]/[Ge][Gc]/ z [cgb] | [cgb] z [Ge]/[Gc]/[GB]/[GA]/ | %76
 [Fd]/[Ff][cfc']/ [Bfb]2- | [Bfb]>a [dfd']/[cc']/[Bb]/[Aa]/ | [Bfb]/[cfc'][Afa]/ [Bfb]2- | %79
 [Bfb]>a [B^db]/[Bda]/[Bdg]/[Adf]/ | [^G=de]/[Gdf][GB]/ [Ge]2- | [^Ge]>e [Gf]/[Ge]/[Gd]/[GB]/ | %82
 [Ac]/a[ce]/ !>![Aa]2- | [Aa]>[Af] [ca]/[Af]/[ca]/[Af]/ |!>(! [FAd]4!>)! | %85
!p! !fermata![DE_Bd]2!ff! !fermata![dfad'] z |] %86
V:2
 [G,,,G,,]>E, [G,B,D][G,,,G,,] | [A,,,A,,]>A, [G,^C][A,,,A,,] | [D,,D,]>A, [F,D][A,,,A,,] | %3
 [D,,D,]2 z !>![A,,,A,,] |: !>![D,,D,]>A, [F,D][A,,,A,,] | [D,,D,]>A, [F,D][A,,,A,,] | %6
 [G,,,G,,]>D, !>![G,B,][D,,D,] | [G,,,G,,]>D, [G,B,][E,,E,] | [A,,,A,,]>E, [G,A,][E,,E,] | %9
 [A,,,A,,]>E, [G,A,][A,,,A,,] | [F,,F,]>A, [F,D][A,,,A,,] | [E,,E,]>A, [G,^C][A,,,A,,] | %12
 [D,,D,]>A, [F,D][A,,,A,,] | [D,,D,]>A, [F,D][D,,D,] | [G,,,G,,]>D, !>![G,B,][D,,D,] | %15
 [G,,,G,,]>D, [G,B,][E,,E,] | [A,,,A,,]>E, [G,A,][E,,E,] | [A,,,A,,]>E, [G,A,][A,,,A,,] |1 %18
 z3/2 [F,A,]/ [F,A,][F,A,] | [F,A,] z z !>![A,,,A,,] :|2 z3/2 [F,A,]/ [F,A,][F,A,] | [F,A,] z z2 || %22
[K:D] [D,,D,]>A, [F,D][F,,F,] | [B,,,B,,]>B, [F,^D][B,,,B,,] | [E,,E,]>E, [B,=D][B,,,B,,] | %25
 [E,,E,]>E, [B,D][B,,,B,,] | [A,,,A,,]>A, [=G,C][E,,E,] | [A,,,A,,]>A, [G,C][A,,,A,,] | %28
 [D,,D,]>A, [F,D]A, | [DF] z z2 | [D,,D,]>A, [F,D][F,,F,] | [B,,,B,,]>B, [F,^D][B,,,B,,] | %32
 [E,,E,]>E, [B,=D][B,,,B,,] | [E,,E,]>E, [B,D][B,,,B,,] | [A,,,A,,]>A, [=G,C][E,,E,] | %35
 [A,,,A,,]>A, [G,C][A,,,A,,] | [D,,D,]>A, DA, | D z z2 ||[K:G] (G,,>"^a tempo."D, [G,B,]D, | %39
 [B,D]2) B,,_B,, | A,,>D, [A,C]D, | A,, z z2 | D,,>D, [F,C]D, | D,,2 [D,F,C]2 | G,,>D, [G,B,]D, | %45
 G,, z z2 | G,,>D, [G,B,]D, | [B,D]2 [G,,G,]2 | [F,,F,]>F, [B,D]F, | D,2 [B,,B,]2 | %50
 [^A,,^A,]>F, [^CE]F, | F,,2 [F,^A,E]2 | B,,>F, B,^A, | =A, z !>![D,,D,]2 | %54
"^a tempo." (G,,>D, [G,B,]D, | [B,D]2) B,,_B,, | A,,>D, [A,C]D, | A,, z z2 | D,,>D, [F,C]D, | %59
 D,,2 [D,F,C]2 | G,,>D, [G,B,]D, | G,, z z2 | G,,>D, [G,B,]D, | G,,>G, [D=F] z | C,>G, CG, | %65
 !>!G2 !>![C,,C,]2 | [D,,D,]2 [E,,E,]2 | [A,,,A,,]2 [D,,D,]2 | G,,>D, DD, | G, z z2 || %70
[K:D] [D,,D,]>A, [F,D][F,,F,] | [B,,,B,,]>B, [F,^D][B,,,B,,] | [E,,E,]>E, [B,=D][B,,,B,,] | %73
 [E,,E,]>E, [B,D][B,,,B,,] | [A,,,A,,]>A, [=G,C][E,,E,] | [A,,,A,,]>A, [G,C][A,,,A,,] | %76
 ([D,,D,]>A, [F,D]A, | [DF]) z z2 | [D,,D,]>A, [F,D][F,,F,] | [B,,,B,,]>B, [F,^D][B,,,B,,] | %80
 [E,,E,]>E, [B,=D][B,,,B,,] | [E,,E,]>E, [B,D][B,,,B,,] | [A,,,A,,]>A, [=G,C][E,,E,] | %83
 [A,,,A,,]>A, [G,C][A,,,A,,] | [D,,D,]>A, D[D,,D,] | !fermata![G,,,G,,]2 !fermata![D,,,D,,] z |] %86
V:3
 x4 | x4 | x4 | x4 |: x2 z [FA] | x4 | B,2 B,2- | B,4 | ^C2 C2- | x2 ^C2 | x4 | x4 | x2 z [FA] | %13
 x4 | B,2 B,2- | B,4 | ^C2 C2- | x2 ^C2 |1 x4 | x4 :|2 x4 | x4 ||[K:D] x4 | x4 | x4 | ^G2 x2 | %26
 x2 !>![GB]2- | [GB]>c x2 | x4 | x4 | x4 | x4 | x4 | ^G2 x2 | x4 | x4 | F>!>(![FA] [FB][FA]-!>)! | %37
 [FA] x3 ||[K:G] z3/2 [Bd]/ [Bd][Bd] | [Bd] x3 | F>[DF] [DF][DF] | [DF]D x2 | z3/2 [df]/ [df][df] | %43
 [df] x3 | z3/2 [GB]/ [GB][GB] | DD x2 | z3/2 [Bd]/ [Bd][Bd] | [Bd] x3 | z3/2 [Bd]/ [Bd][Bd] | %49
 [Bd] x3 | z3/2 [ef]/ [ef][ef] | [ef] x3 | z3/2 [B^d]/ [Bd][F^c] | x4 | z3/2 [Bd]/ [Bd][Bd] | %55
 [Bd] x3 | F>[DF] [DF]!<(![DF] | x4!<)! | z3/2 [df]/ [df][df] | [df] x3 | z3/2 [GB]/ [GB][GB] | %61
 x4 | z3/2 [Bd]/ [Bd][Bd] | [Bd] x3 | z3/2 [ce]/ [ce][ce] | [c_e]2 [ce][ce] | x4 | x4 | %68
 [Bd]2- [Bd]!>(![Ac] | [GB] z!>)! x2 ||[K:D] x4 | x4 | x4 | ^G2 x2 | x2 [GB]2- | [GB]>c x2 | x4 | %77
 x4 | x4 | x4 | x4 | x4 | x4 | x4 | x4 | x4 |] %86
V:4
 x4 | x4 | x4 | x4 |: x4 | x4 | x4 | x4 | x4 | x4 | x4 | x4 | x4 | x4 | x4 | x4 | x4 | x4 |1 %18
 [D,,D,]>A,, D,A,, | D,, x3 :|2 [D,,D,]>A,, D,A,, | D,, x3 ||[K:D] x4 | x4 | x4 | x4 | x4 | x4 | %28
 x4 | x4 | x4 | x4 | x4 | x4 | x4 | x4 | x4 | x4 ||[K:G] x4 | x4 | x4 | x4 | x4 | x4 | x4 | x4 | %46
 x4 | x4 | x4 | x4 | x4 | x4 | x4 | x4 | x4 | x4 | x4 | x4 | x4 | x4 | x4 | x4 | x4 | x4 | x4 | %65
 x4 | x4 | x4 | x4 | x4 ||[K:D] x4 | x4 | x4 | x4 | x4 | x4 | x4 | x4 | x4 | x4 | x4 | x4 | x4 | %83
 x4 | x4 | x4 |] %86

